; generated by PrusaSlicer 2.5.0+MacOS-arm64 on 2023-10-19 at 02:17:29 UTC


;
;

;
;
; 

; external perimeters extrusion width = 0.45mm
; perimeters extrusion width = 0.45mm
; infill extrusion width = 0.45mm
; solid infill extrusion width = 0.45mm
; top infill extrusion width = 0.40mm
; first layer extrusion width = 0.42mm

M73 P0 R21
M201 X2500 Y2500 Z400 E5000 ; sets maximum accelerations, mm/sec^2
M203 X180 Y180 Z12 E80 ; sets maximum feedrates, mm / sec
M204 P1250 R1250 T2500 ; sets acceleration (P, T) and retract acceleration (R), mm/sec^2
M205 X8.00 Y8.00 Z2.00 E10.00 ; sets the jerk limits, mm/sec
M205 S0 T0 ; sets the minimum extruding and travel feed rate, mm/sec
M107
;TYPE:Custom
M862.3 P "MINI" ; printer model check
G90 ; use absolute coordinates
M83 ; extruder relative mode
M104 S170 ; set extruder temp for bed leveling
M140 S60 ; set bed temp
M109 R170 ; wait for bed leveling temp
M190 S60 ; wait for bed temp
M204 T1250 ; set travel acceleration
G28 ; home all without mesh bed level
G29 ; mesh bed leveling 
M204 T2500 ; restore travel acceleration
M104 S215 ; set extruder temp
G92 E0
G1 Y-2 X179 F2400
G1 Z3 F720
M109 S215 ; wait for extruder temp

; intro line
G1 X170 F1000
G1 Z0.2 F720
G1 X110 E8 F900
G1 X40 E10 F700
G92 E0

M221 S95 ; set flow
G21 ; set units to millimeters
G90 ; use absolute coordinates
M83 ; use relative distances for extrusion
M900 K0.2 ; Filament gcode LA 1.5
; ; Filament gcode LA 1.0
M107
;LAYER_CHANGE
;Z:0.2
;HEIGHT:0.2
;BEFORE_LAYER_CHANGE
G92 E0.0
;0.2


M73 P0 R20
G1 E-3.2 F4200
M73 P1 R20
G1 Z.2 F720
;AFTER_LAYER_CHANGE
;0.2
G1 Z.4
G1 X82.607 Y109.616 F9000
G1 Z.2 F720
G1 E3.2 F2400
M204 P800
;TYPE:Skirt/Brim
;WIDTH:0.42
G1 F900
G1 X84.056 Y109.365 E.04612
G1 X85.279 Y109.791 E.04059
G1 X86.266 Y110.428 E.03684
G1 X87.394 Y111.897 E.05807
G1 X95.404 Y136.729 E.8181
G1 X95.466 Y138.199 E.04612
G1 X94.762 Y139.49 E.04612
G1 X92.887 Y140.327 E.06437
G1 X83.917 Y140.651 E.28144
G1 X82.487 Y140.305 E.04612
G1 X81.439 Y139.273 E.04612
G1 X81.073 Y137.993 E.04175
G1 X80.805 Y124.462 E.42434
G1 X80.776 Y118.253 E.19468
G1 X81.035 Y111.975 E.19701
G1 X81.494 Y110.578 E.04612
G1 X82.562 Y109.656 E.04424
M204 P1000
G1 X82.812 Y109.985 F9000
M204 P800
G1 F900
G1 X82.951 Y109.88 E.00544
G1 X84.312 Y109.788 E.04278
G1 X85.074 Y110.108 E.02593
G1 X86.062 Y110.745 E.03684
G1 X87.035 Y112.013 E.05012
G1 X95.045 Y136.845 E.8181
G1 X95.074 Y138.209 E.04278
G1 X94.348 Y139.364 E.04278
G1 X92.873 Y139.95 E.04976
G1 X83.904 Y140.274 E.28139
G1 X82.585 Y139.926 E.04278
G1 X81.674 Y138.91 E.04278
G1 X81.447 Y137.915 E.03199
G1 X81.182 Y124.428 E.42297
G1 X81.155 Y118.144 E.19702
M73 P2 R20
G1 X81.411 Y111.993 E.19303
G1 X81.864 Y110.706 E.04278
G1 X82.765 Y110.022 E.03546
M204 P1000
; printing object FirstWindTurbineBlade-0.5x.stl id:0 copy 0
G1 E-2.24 F4200
;WIPE_START
G1 F7200
G1 X82.951 Y109.88 E-.12943
G1 X84.312 Y109.788 E-.75612
G1 X84.356 Y109.806 E-.02645
;WIPE_END
G1 E-.048 F4200
G1 Z.4 F720
G1 X87.539 Y136.98 F9000
G1 Z.2 F720
G1 E3.2 F2400
M204 P800
;TYPE:Perimeter
;WIDTH:0.419999
G1 F900
G1 X86.191 Y137.029 E.0423
G1 X86.33 Y135.045 E.06236
G1 X86.48 Y134.134 E.02892
G1 X86.991 Y135.239 E.03815
G1 X87.521 Y136.923 E.05537
M204 P1000
G1 X88.047 Y137.339 F9000
M204 P800
;TYPE:External perimeter
G1 F900
G1 X85.785 Y137.421 E.07097
G1 X85.955 Y135.001 E.07606
G1 X86.229 Y133.335 E.05294
G1 X86.525 Y133.334 E.00928
G1 X87.343 Y135.102 E.06109
G1 X88.029 Y137.282 E.07165
M204 P1000
G1 X87.676 Y137.191 F9000
G1 X87.212 Y136.319
M204 P800
;TYPE:Solid infill
;WIDTH:0.476361
G1 F900
G1 X86.569 Y135.676 E.03276
G1 X86.529 Y136.248 E.02069
G1 X87.161 Y136.881 E.03222
M204 P1000
; stop printing object FirstWindTurbineBlade-0.5x.stl id:0 copy 0
M106 S84.15
;LAYER_CHANGE
;Z:0.35
;HEIGHT:0.15
;BEFORE_LAYER_CHANGE
G92 E0.0
;0.35


G1 E-2.24 F4200
;WIPE_START
G1 F7200
G1 X86.529 Y136.248 E-.49547
G1 X86.569 Y135.676 E-.31817
G1 X86.695 Y135.801 E-.09836
;WIPE_END
G1 E-.048 F4200
G1 Z.4 F720
;AFTER_LAYER_CHANGE
;0.35
G1 X86.866 Y140.544 F9000
G1 Z.35 F720
G1 E3.2 F2400
;TYPE:Skirt/Brim
;WIDTH:0.42
G1 F1274
G1 X83.917 Y140.651 E.07137
G1 X82.487 Y140.305 E.03557
G1 X81.439 Y139.273 E.03557
G1 X81.073 Y137.993 E.0322
G1 X80.805 Y124.462 E.32731
G1 X80.776 Y118.253 E.15016
G1 X81.035 Y111.975 E.15196
G1 X81.494 Y110.578 E.03557
G1 X82.607 Y109.616 E.03557
G1 X84.056 Y109.365 E.03557
G1 X85.279 Y109.791 E.03131
G1 X86.266 Y110.428 E.02842
G1 X87.394 Y111.897 E.0448
G1 X95.404 Y136.729 E.63103
G1 X95.466 Y138.199 E.03557
G1 X94.762 Y139.49 E.03557
G1 X92.887 Y140.327 E.04965
G1 X86.926 Y140.542 E.14427
G1 X86.912 Y140.165 F9000
G1 F1274
G1 X83.904 Y140.274 E.0728
G1 X82.585 Y139.926 E.033
G1 X81.674 Y138.91 E.033
G1 X81.447 Y137.915 E.02467
G1 X81.182 Y124.428 E.32626
G1 X81.155 Y118.144 E.15197
G1 X81.411 Y111.993 E.14889
G1 X81.864 Y110.706 E.033
G1 X82.951 Y109.88 E.033
G1 X84.312 Y109.788 E.033
G1 X85.074 Y110.108 E.02
G1 X86.062 Y110.745 E.02842
G1 X87.035 Y112.013 E.03866
G1 X95.045 Y136.845 E.63103
G1 X95.074 Y138.209 E.033
G1 X94.348 Y139.364 E.033
G1 X92.873 Y139.95 E.03838
G1 X86.972 Y140.163 E.1428
; printing object FirstWindTurbineBlade-0.5x.stl id:0 copy 0
G1 E-2.24 F4200
;WIPE_START
G1 F7200
G1 X85.328 Y140.222 E-.912
;WIPE_END
G1 E-.048 F4200
G1 Z.55 F720
G1 X88.606 Y137.084 F9000
G1 Z.35 F720
G1 E3.2 F2400
M204 P800
;TYPE:Perimeter
;WIDTH:0.449999
G1 F1274
G1 X85.189 Y137.207 E.08911
;TYPE:Overhang perimeter
G1 F1500
G1 X85.068 Y137.212 E.00313
G1 X84.971 Y134.385 E.07369
G1 X84.995 Y133.633 E.0196
G1 X85.014 Y129.531 E.10688
G1 X85.078 Y128.746 E.02054
G1 X85.212 Y125.319 E.08935
G1 X85.476 Y124.068 E.03332
G1 X85.77 Y124.834 E.02138
G1 X86.232 Y125.523 E.02162
G1 X87.043 Y127.892 E.06525
G1 X87.572 Y128.922 E.03017
M73 P3 R20
G1 X88.32 Y131.194 E.06232
G1 X90.36 Y135.66 E.12792
G1 X90.827 Y137.004 E.03708
G1 X88.666 Y137.082 E.05633
M204 P1000
G1 E-2.24 F4200
;WIPE_START
G1 F7200
G1 X87.022 Y137.141 E-.912
;WIPE_END
G1 E-.048 F4200
G1 Z.55 F720
G1 X91.416 Y137.401 F9000
G1 Z.35 F720
G1 E3.2 F2400
M204 P800
G1 F1500
G1 X88.737 Y137.497 E.06986
;TYPE:External perimeter
G1 F1274
G1 X85.159 Y137.626 E.09327
;TYPE:Overhang perimeter
G1 F1500
G1 X84.665 Y137.644 E.01288
G1 X84.553 Y134.385 E.08496
G1 X84.577 Y133.631 E.01966
G1 X84.596 Y129.53 E.10688
G1 X84.66 Y128.729 E.02092
G1 X84.796 Y125.268 E.09027
G1 X85.145 Y123.61 E.04413
G1 X85.208 Y123.195 E.01094
G1 X85.633 Y123.269 E.01123
G1 X86.094 Y124.555 E.03562
G1 X86.61 Y125.336 E.02437
G1 X87.439 Y127.757 E.06668
G1 X87.958 Y128.76 E.02943
G1 X88.7 Y131.02 E.06199
G1 X90.748 Y135.504 E.12843
G1 X91.394 Y137.345 E.05084
M204 P1000
G1 E-2.24 F4200
;WIPE_START
G1 F7200
G1 X89.751 Y137.439 E-.912
;WIPE_END
G1 E-.048 F4200
G1 Z.55 F720
G1 X86.574 Y126.908 F9000
G1 Z.35 F720
G1 E3.2 F2400
;TYPE:Bridge infill
;WIDTH:0.468162
G1 F1500
G1 X85.513 Y125.644 E.04488
G1 X85.488 Y126.292 E.01763
G1 X86.631 Y127.654 E.04835
G1 X86.749 Y128.001 E.00995
G1 X87.282 Y129.044 E.03185
G1 X87.317 Y129.151 E.00306
G1 X85.462 Y126.94 E.07847
G1 X85.437 Y127.588 E.01763
G1 X87.686 Y130.268 E.09512
G1 X88.072 Y131.407 E.0327
G1 X85.411 Y128.236 E.11255
G1 X85.381 Y128.877 E.01747
G1 X88.753 Y132.896 E.14263
G1 X89.433 Y134.385 E.04451
G1 X85.328 Y129.492 E.17365
G1 X85.324 Y130.167 E.01834
G1 X90.095 Y135.853 E.20179
G1 X90.392 Y136.706 E.02457
G1 X90.247 Y136.711 E.00395
G1 X85.321 Y130.842 E.20833
G1 X85.318 Y131.516 E.01834
G1 X89.694 Y136.731 E.1851
G1 X89.142 Y136.751 E.01503
G1 X85.315 Y132.191 E.16186
G1 X85.312 Y132.865 E.01834
G1 X88.589 Y136.771 E.13863
G1 X88.037 Y136.791 E.01503
G1 X85.309 Y133.54 E.1154
G1 X85.29 Y134.196 E.01785
G1 X87.485 Y136.811 E.09281
G1 X86.932 Y136.831 E.01503
G1 X85.302 Y134.888 E.06897
G1 X85.326 Y135.595 E.01924
G1 X86.38 Y136.851 E.04457
G1 X85.828 Y136.871 E.01503
G1 X85.154 Y136.069 E.02847
; stop printing object FirstWindTurbineBlade-0.5x.stl id:0 copy 0
M106 S170.85
;LAYER_CHANGE
;Z:0.5
;HEIGHT:0.15
;BEFORE_LAYER_CHANGE
G92 E0.0
;0.5


G1 E-2.24 F4200
;WIPE_START
G1 F7200
G1 X85.828 Y136.871 E-.5803
G1 X86.38 Y136.851 E-.30632
G1 X86.35 Y136.816 E-.02538
;WIPE_END
G1 E-.048 F4200
G1 Z.55 F720
;AFTER_LAYER_CHANGE
;0.5
G1 X86.485 Y140.558 F9000
G1 Z.5 F720
G1 E3.2 F2400
;TYPE:Skirt/Brim
;WIDTH:0.42
G1 X83.917 Y140.651 E.06216
G1 X82.487 Y140.305 E.03557
G1 X81.439 Y139.273 E.03557
G1 X81.073 Y137.993 E.0322
G1 X80.805 Y124.462 E.32731
G1 X80.776 Y118.253 E.15016
G1 X81.035 Y111.975 E.15196
G1 X81.494 Y110.578 E.03557
G1 X82.607 Y109.616 E.03557
G1 X84.056 Y109.365 E.03557
G1 X85.279 Y109.791 E.03131
G1 X86.266 Y110.428 E.02842
G1 X87.394 Y111.897 E.0448
G1 X95.404 Y136.729 E.63103
G1 X95.466 Y138.199 E.03557
G1 X94.762 Y139.49 E.03557
G1 X92.887 Y140.327 E.04965
G1 X86.545 Y140.556 E.15347
G1 X86.532 Y140.179 F9000
G1 F2400
G1 X83.904 Y140.274 E.06359
G1 X82.585 Y139.926 E.033
G1 X81.674 Y138.91 E.033
G1 X81.447 Y137.915 E.02467
G1 X81.182 Y124.428 E.32626
G1 X81.155 Y118.144 E.15197
G1 X81.411 Y111.993 E.14889
G1 X81.864 Y110.706 E.033
G1 X82.951 Y109.88 E.033
G1 X84.312 Y109.788 E.033
G1 X85.074 Y110.108 E.02
G1 X86.062 Y110.745 E.02842
G1 X87.035 Y112.013 E.03866
G1 X95.045 Y136.845 E.63103
G1 X95.074 Y138.209 E.033
G1 X94.348 Y139.364 E.033
G1 X92.873 Y139.95 E.03838
G1 X86.592 Y140.177 E.15201
; printing object FirstWindTurbineBlade-0.5x.stl id:0 copy 0
G1 E-2.24 F4200
;WIPE_START
G1 F7200
G1 X84.947 Y140.236 E-.912
;WIPE_END
G1 E-.048 F4200
G1 Z.7 F720
G1 X84.261 Y128.054 F9000
G1 Z.5 F720
G1 E3.2 F2400
M204 P800
;TYPE:Overhang perimeter
;WIDTH:0.449999
G1 F1500
G1 X84.202 Y124.413 E.09489
G1 X84.221 Y119.74 E.12174
G1 X84.174 Y118.246 E.03896
G1 X84.388 Y113.935 E.11246
G1 X84.543 Y114.602 E.01785
G1 X85.158 Y116.655 E.05583
G1 X85.685 Y118.113 E.04039
G1 X86.455 Y121.273 E.08475
G1 X87.114 Y123.257 E.05448
G1 X88.16 Y126.792 E.09606
G1 X88.643 Y128.255 E.04015
M73 P4 R20
G1 X89.273 Y129.634 E.03948
G1 X90.611 Y133.532 E.10738
G1 X91.41 Y135.783 E.06224
G1 X91.862 Y136.965 E.03297
G1 X91.707 Y136.97 E.00402
;TYPE:Perimeter
G1 F2400
G1 X84.459 Y137.232 E.18898
G1 X84.416 Y134.042 E.08313
G1 X84.296 Y130.136 E.10182
G1 X84.262 Y128.114 E.05269
M204 P1000
G1 E-2.24 F4200
;WIPE_START
G1 F7200
G1 X84.235 Y126.468 E-.912
;WIPE_END
G1 E-.048 F4200
G1 Z.7 F720
G1 X86.085 Y117.992 F9000
G1 Z.5 F720
G1 E3.2 F2400
M204 P800
;TYPE:Overhang perimeter
G1 F1500
G1 X86.851 Y121.141 E.08444
G1 X87.513 Y123.132 E.05466
G1 X88.556 Y126.656 E.09577
G1 X89.015 Y128.06 E.03847
G1 X89.661 Y129.479 E.04063
G1 X91.004 Y133.39 E.10775
G1 X91.803 Y135.643 E.0623
G1 X92.461 Y137.361 E.04793
G1 X91.864 Y137.383 E.01555
;TYPE:External perimeter
G1 F1800
G1 X84.241 Y137.658 E.19876
;TYPE:Overhang perimeter
G1 F1500
G1 X84.047 Y137.665 E.00504
G1 X83.998 Y134.058 E.09398
G1 X83.878 Y130.146 E.10199
G1 X83.784 Y124.415 E.14933
G1 X83.804 Y119.739 E.12185
G1 X83.756 Y118.242 E.03901
G1 X83.974 Y113.843 E.11477
G1 X83.98 Y112.753 E.0284
G1 X84.584 Y112.923 E.01634
G1 X84.944 Y114.483 E.0417
G1 X85.558 Y116.535 E.05583
G1 X86.065 Y117.935 E.0388
M204 P1000
G1 E-2.24 F4200
;WIPE_START
G1 F7200
G1 X86.457 Y119.534 E-.912
;WIPE_END
G1 E-.048 F4200
G1 Z.7 F720
G1 X87.148 Y123.814 F9000
G1 Z.5 F720
G1 E3.2 F2400
;TYPE:Bridge infill
;WIDTH:0.474644
G1 F1500
G1 X84.549 Y117.014 E.2009
G1 X84.494 Y118.11 E.03029
G1 X89.316 Y130.723 E.37258
G1 X90.315 Y133.636 E.08498
G1 X91.115 Y135.889 E.06596
G1 X91.412 Y136.667 E.02299
G1 X91.118 Y136.678 E.00812
G1 X84.525 Y119.429 E.50952
G1 X84.531 Y120.684 E.03462
G1 X90.651 Y136.695 E.47296
G1 X90.184 Y136.712 E.0129
G1 X84.526 Y121.91 E.43725
G1 X84.52 Y123.135 E.03382
G1 X89.716 Y136.729 E.40155
G1 X89.249 Y136.745 E.0129
G1 X84.515 Y124.361 E.36585
G1 X84.535 Y125.653 E.03565
G1 X88.782 Y136.762 E.32818
G1 X88.471 Y136.774 E.00859
G1 X88.362 Y136.455 E.00928
G1 X87.318 Y134.171 E.0693
G1 X84.557 Y126.947 E.21338
G1 X84.578 Y128.242 E.03573
G1 X86.066 Y132.135 E.11499
G1 X85.586 Y132.118 E.01326
G1 X84.599 Y129.537 E.07624
G1 X84.631 Y130.861 E.03653
G1 X85.178 Y132.292 E.04227
G1 E-2.24 F4200
;WIPE_START
G1 F7200
G1 X84.631 Y130.861 E-.84902
G1 X84.629 Y130.747 E-.06298
;WIPE_END
G1 E-.048 F4200
G1 Z.7 F720
G1 X87.03 Y134.095 F9000
G1 Z.5 F720
G1 E3.2 F2400
;TYPE:Solid infill
;WIDTH:0.489477
G1 F4800
G1 X85.467 Y132.532 E.06304
G1 X84.797 Y132.508 E.01913
G1 X87.194 Y134.905 E.09668
G1 X87.738 Y136.096 E.03734
G1 X84.699 Y133.057 E.12257
G1 X84.719 Y133.724 E.01904
G1 X87.793 Y136.798 E.12397
G1 X87.169 Y136.821 E.01781
G1 X84.734 Y134.385 E.09822
G1 X84.743 Y135.041 E.0187
G1 X86.545 Y136.843 E.07269
G1 X85.921 Y136.866 E.01781
G1 X84.752 Y135.696 E.04715
G1 X84.761 Y136.352 E.0187
G1 X85.478 Y137.07 E.02894
; stop printing object FirstWindTurbineBlade-0.5x.stl id:0 copy 0
M106 S255
;LAYER_CHANGE
;Z:0.65
;HEIGHT:0.15
;BEFORE_LAYER_CHANGE
G92 E0.0
;0.65


G1 E-2.24 F4200
;WIPE_START
G1 F7200
G1 X84.761 Y136.352 E-.56242
G1 X84.752 Y135.721 E-.34958
;WIPE_END
G1 E-.048 F4200
G1 Z.7 F720
;AFTER_LAYER_CHANGE
;0.65
; printing object FirstWindTurbineBlade-0.5x.stl id:0 copy 0
G1 X84.086 Y137.244 F9000
G1 Z.65 F720
G1 E3.2 F2400
M204 P800
;TYPE:Perimeter
;WIDTH:0.449999
G1 X83.924 Y132.698 E.11852
G1 X83.887 Y130.71 E.0518
G1 X83.733 Y126.907 E.09918
G1 X83.592 Y121.632 E.13747
G1 X83.527 Y120.236 E.03643
G1 X83.442 Y115.985 E.11077
;TYPE:Overhang perimeter
G1 F1500
G1 X83.363 Y114.063 E.05013
G1 X83.304 Y110.796 E.08514
G1 X83.163 Y107.777 E.07873
G1 X83.133 Y104.727 E.07946
;WIDTH:0.499447
M73 P5 R20
G1 X83.155 Y104.63 E.00291
;WIDTH:0.548894
G1 X83.176 Y104.532 E.00322
;WIDTH:0.598342
G1 X83.197 Y104.435 E.00353
;WIDTH:0.647789
G1 X83.219 Y104.337 E.00384
G1 X83.167 Y103.596 E.02851
;WIDTH:0.601274
G1 X83.115 Y102.855 E.02636
;WIDTH:0.554758
G1 X83.063 Y102.115 E.0242
;WIDTH:0.508242
G1 X83.012 Y101.374 E.02205
;WIDTH:0.461726
G1 X82.97 Y100.827 E.01468
;WIDTH:0.420963
G1 X83.034 Y99.11 E.04167
G1 X83.355 Y100.791 E.04149
;WIDTH:0.461726
G1 X83.438 Y101.33 E.01463
;WIDTH:0.508242
G1 X83.536 Y102.067 E.02205
;WIDTH:0.554758
G1 X83.634 Y102.803 E.0242
;WIDTH:0.601274
G1 X83.732 Y103.539 E.02636
;WIDTH:0.647789
G1 X83.83 Y104.275 E.02851
G1 X83.871 Y104.369 E.00395
;WIDTH:0.598342
G1 X83.912 Y104.464 E.00363
;WIDTH:0.548894
G1 X83.952 Y104.558 E.00331
;WIDTH:0.499447
G1 X83.993 Y104.653 E.003
;WIDTH:0.449999
G1 X84.24 Y106.138 E.03924
G1 X84.788 Y108.444 E.06176
G1 X85.324 Y111.434 E.07914
G1 X85.653 Y113.09 E.04399
G1 X86.733 Y117.467 E.11749
G1 X87.032 Y118.846 E.03676
G1 X88.396 Y123.551 E.12763
G1 X88.76 Y125.036 E.03984
G1 X89.291 Y126.826 E.04865
G1 X90.509 Y130.376 E.0978
G1 X91.893 Y134.275 E.10778
G1 X92.906 Y136.925 E.07393
G1 X92.751 Y136.931 E.00405
;TYPE:Perimeter
G1 F2400
G1 X84.146 Y137.241 E.22434
M204 P1000
G1 X83.684 Y137.676 F9000
M204 P800
;TYPE:External perimeter
G1 F1800
G1 X83.584 Y134.89 E.07265
;TYPE:Overhang perimeter
G1 F1500
G1 X83.506 Y132.709 E.05685
G1 X83.469 Y130.727 E.05166
G1 X83.315 Y126.921 E.09926
G1 X83.175 Y121.643 E.13755
G1 X83.109 Y120.249 E.03636
G1 X83.032 Y116.166 E.10642
G1 X82.945 Y114.075 E.05452
G1 X82.887 Y110.815 E.08496
G1 X82.745 Y107.789 E.07894
G1 X82.715 Y104.667 E.08134
G1 X82.566 Y100.828 E.10012
G1 X82.711 Y96.902 E.10235
;WIDTH:0.470982
G1 X82.68 Y95.727 E.03216
G1 X82.967 Y96.867 E.03216
;WIDTH:0.449999
G1 X83.194 Y97.804 E.02513
G1 X83.855 Y101.253 E.0915
G1 X84.34 Y104.191 E.07758
G1 X84.643 Y106.027 E.0485
G1 X85.198 Y108.359 E.06245
G1 X85.735 Y111.354 E.07929
G1 X86.063 Y113.008 E.04394
G1 X87.14 Y117.373 E.11715
G1 X87.433 Y118.73 E.03616
G1 X88.799 Y123.443 E.12786
G1 X89.161 Y124.917 E.03955
G1 X89.686 Y126.691 E.04819
G1 X90.902 Y130.235 E.09763
G1 X92.286 Y134.135 E.10784
G1 X93.505 Y137.322 E.08889
G1 X92.909 Y137.343 E.01555
;TYPE:External perimeter
G1 F1800
G1 X83.744 Y137.674 E.23895
M204 P1000
G1 E-2.24 F4200
;WIPE_START
M73 P5 R19
G1 F7200
G1 X83.65 Y136.031 E-.912
;WIPE_END
G1 E-.048 F4200
G1 Z.85 F720
G1 X82.679 Y95.721 F9000
G1 Z.65 F720
G1 E3.2 F2400
M204 P800
;TYPE:Overhang perimeter
;WIDTH:0.471308
G1 F1500
