; generated by PrusaSlicer 2.5.0+MacOS-arm64 on 2023-10-19 at 04:13:27 UTC


;
;

;
;
; 

; external perimeters extrusion width = 0.45mm
; perimeters extrusion width = 0.45mm
; infill extrusion width = 0.45mm
; solid infill extrusion width = 0.45mm
; top infill extrusion width = 0.40mm
; first layer extrusion width = 0.42mm

M73 P0 R74
M201 X2500 Y2500 Z400 E5000 ; sets maximum accelerations, mm/sec^2
M203 X180 Y180 Z12 E80 ; sets maximum feedrates, mm / sec
M204 P1250 R1250 T2500 ; sets acceleration (P, T) and retract acceleration (R), mm/sec^2
M205 X8.00 Y8.00 Z2.00 E10.00 ; sets the jerk limits, mm/sec
M205 S0 T0 ; sets the minimum extruding and travel feed rate, mm/sec
M107
;TYPE:Custom
M862.3 P "MINI" ; printer model check
G90 ; use absolute coordinates
M83 ; extruder relative mode
M104 S170 ; set extruder temp for bed leveling
M140 S60 ; set bed temp
M109 R170 ; wait for bed leveling temp
M190 S60 ; wait for bed temp
M204 T1250 ; set travel acceleration
G28 ; home all without mesh bed level
G29 ; mesh bed leveling 
M204 T2500 ; restore travel acceleration
M104 S215 ; set extruder temp
G92 E0
G1 Y-2 X179 F2400
G1 Z3 F720
M109 S215 ; wait for extruder temp

; intro line
G1 X170 F1000
G1 Z0.2 F720
G1 X110 E8 F900
G1 X40 E10 F700
G92 E0

M221 S95 ; set flow
G21 ; set units to millimeters
G90 ; use absolute coordinates
M83 ; use relative distances for extrusion
M900 K0.2 ; Filament gcode LA 1.5
; ; Filament gcode LA 1.0
M107
;LAYER_CHANGE
;Z:0.2
;HEIGHT:0.2
;BEFORE_LAYER_CHANGE
G92 E0.0
;0.2


G1 E-3.2 F4200
G1 Z.2 F720
;AFTER_LAYER_CHANGE
;0.2
G1 Z.4
G1 X70.472 Y83.232 F9000
G1 Z.2 F720
G1 E3.2 F2400
M204 P800
;TYPE:Skirt/Brim
;WIDTH:0.42
G1 F1200
G1 X71.556 Y82.434 E.0422
G1 X73.155 Y81.748 E.05456
G1 X74.793 Y81.362 E.05277
G1 X76.788 Y81.166 E.06285
G1 X83.215 Y81.461 E.20174
G1 X89.236 Y82.329 E.19074
G1 X95.258 Y83.461 E.19212
G1 X96.254 Y83.897 E.03408
G1 X97.11 Y84.856 E.04029
G1 X97.431 Y85.883 E.03376
G1 X97.242 Y87.342 E.04612
G1 X95.741 Y88.823 E.0661
G1 X95.449 Y88.93 E.00975
G1 X89.619 Y90.658 E.19065
G1 X83.597 Y91.809 E.19224
G1 X79.781 Y92.13 E.12006
G1 X76.667 Y92 E.09774
G1 X74.504 Y91.602 E.06894
G1 X72.959 Y91.098 E.05094
G1 X71.928 Y90.601 E.03589
G1 X71.052 Y90.014 E.03307
G1 X70.226 Y89.245 E.03539
G1 X69.662 Y88.442 E.03078
G1 X69.25 Y87.467 E.03317
G1 X69.102 Y86.551 E.0291
G1 X69.198 Y85.434 E.03514
G1 X69.434 Y84.709 E.02391
G1 X69.863 Y83.943 E.02753
G1 X70.433 Y83.278 E.02746
M204 P1000
G1 X70.698 Y83.567 F9000
M204 P800
G1 F1200
G1 X71.134 Y83.167 E.01853
G1 X72.104 Y82.56 E.03588
G1 X73.129 Y82.145 E.03467
G1 X74.688 Y81.768 E.0503
G1 X76.787 Y81.543 E.0662
G1 X83.161 Y81.834 E.20006
G1 X89.175 Y82.701 E.19049
G1 X95.178 Y83.829 E.19153
G1 X96.039 Y84.207 E.02947
G1 X96.778 Y85.036 E.03483
G1 X97.058 Y85.936 E.02957
G1 X96.854 Y87.285 E.04278
G1 X95.599 Y88.473 E.05418
G1 X95.226 Y88.605 E.01241
G1 X89.532 Y90.291 E.18619
G1 X83.527 Y91.439 E.19169
M73 P0 R73
G1 X79.785 Y91.753 E.11773
G1 X76.696 Y91.624 E.09696
G1 X74.676 Y91.259 E.06435
G1 X73.097 Y90.747 E.05204
G1 X72.121 Y90.277 E.03396
G1 X71.268 Y89.705 E.03221
G1 X70.516 Y89.003 E.03225
G1 X69.998 Y88.271 E.02814
G1 X69.613 Y87.364 E.03088
G1 X69.479 Y86.542 E.02612
G1 X69.564 Y85.525 E.03198
G1 X69.974 Y84.473 E.0354
G1 X70.475 Y83.772 E.02701
G1 X70.654 Y83.608 E.00763
M204 P1000
; printing object FirstWindTurbineBlade-DowelHole.stl id:0 copy 0
G1 E-2.24 F4200
;WIPE_START
G1 F7200
G1 X71.134 Y83.167 E-.36083
G1 X71.977 Y82.64 E-.55117
;WIPE_END
G1 E-.048 F4200
G1 Z.4 F720
G1 X75.394 Y84.844 F9000
G1 Z.2 F720
G1 E3.2 F2400
M204 P800
;TYPE:Perimeter
;WIDTH:0.419999
G1 F1200
G1 X74.987 Y85.37 E.02083
G1 X74.758 Y85.915 E.01855
G1 X74.668 Y86.508 E.01882
G1 X74.671 Y86.819 E.00973
G1 X74.78 Y87.437 E.01969
G1 X75.105 Y88.082 E.02261
G1 X74.227 Y87.79 E.029
G1 X73.646 Y87.503 E.02034
G1 X73.138 Y87.15 E.01939
G1 X72.772 Y86.745 E.01711
G1 X72.645 Y86.41 E.01124
G1 X72.705 Y86.075 E.01067
G1 X72.963 Y85.751 E.013
G1 X73.457 Y85.422 E.01859
G1 X74.034 Y85.179 E.01966
G1 X75.336 Y84.858 E.04201
M204 P1000
G1 E-2.24 F4200
;WIPE_START
G1 F7200
G1 X74.987 Y85.37 E-.34271
G1 X74.758 Y85.915 E-.32787
G1 X74.693 Y86.346 E-.24142
;WIPE_END
G1 E-.048 F4200
G1 Z.4 F720
G1 X79.654 Y85.301 F9000
G1 Z.2 F720
G1 E3.2 F2400
M204 P800
G1 F1200
G1 X79.619 Y85.225 E.00261
G1 X79.27 Y84.806 E.0171
G1 X82.742 Y84.971 E.10899
G1 X88.662 Y85.823 E.18751
G1 X91.673 Y86.356 E.09589
G1 X88.708 Y87.229 E.09693
G1 X82.851 Y88.338 E.18689
G1 X79.844 Y88.587 E.09463
G1 X79.165 Y88.581 E.02129
G1 X79.331 Y88.418 E.0073
G1 X79.707 Y87.936 E.01917
G1 X79.964 Y87.277 E.02216
G1 X80.037 Y86.578 E.02204
G1 X79.924 Y85.881 E.02216
G1 X79.679 Y85.355 E.01818
M204 P1000
G1 X79.224 Y85.347 F9000
M204 P800
;TYPE:External perimeter
G1 F1200
G1 X79.33 Y85.468 E.00507
G1 X79.577 Y86.028 E.01916
G1 X79.663 Y86.628 E.019
G1 X79.59 Y87.228 E.01896
G1 X79.36 Y87.788 E.01899
G1 X78.922 Y88.299 E.02109
;WIDTH:0.440797
G1 X78.456 Y88.58 E.018
G1 X77.883 Y88.7 E.01936
;WIDTH:0.421481
G1 X77.369 Y88.746 E.01625
;WIDTH:0.393635
G1 X76.827 Y88.687 E.01592
;WIDTH:0.418884
G1 X76.31 Y88.523 E.01693
;WIDTH:0.463433
G1 X75.805 Y88.289 E.01947
G1 X75.42 Y87.87 E.01993
;WIDTH:0.419999
G1 X75.124 Y87.281 E.02066
G1 X75.033 Y86.678 E.01912
G1 X75.105 Y86.077 E.01899
G1 X75.335 Y85.516 E.01899
G1 X75.695 Y85.072 E.01795
;WIDTH:0.431145
G1 X76.226 Y84.714 E.02065
G1 X76.792 Y84.564 E.01891
;WIDTH:0.420574
G1 X77.324 Y84.536 E.01672
G1 X77.867 Y84.582 E.01712
;WIDTH:0.433778
G1 X78.407 Y84.7 E.01798
G1 X78.926 Y85.006 E.01956
;WIDTH:0.419999
G1 X79.185 Y85.302 E.01232
M204 P1000
G1 E-2.24 F4200
;WIPE_START
G1 F7200
G1 X79.33 Y85.468 E-.12287
G1 X79.577 Y86.028 E-.33873
G1 X79.663 Y86.628 E-.33579
G1 X79.638 Y86.833 E-.11462
;WIPE_END
G1 E-.048 F4200
G1 Z.4 F720
G1 X77.461 Y84.169 F9000
G1 Z.2 F720
G1 E3.2 F2400
M204 P800
;WIDTH:0.41821
G1 F1200
G1 X77.968 Y84.221 E.01592
;WIDTH:0.423119
G1 X78.778 Y84.361 E.02597
G1 X79.286 Y84.424 E.0162
;WIDTH:0.419999
G1 X82.778 Y84.595 E.10962
G1 X88.721 Y85.451 E.18826
G1 X91.866 Y85.999 E.10008
;WIDTH:0.453938
G1 X92.78 Y86.101 E.03144
G1 X93.283 Y86.086 E.01721
;WIDTH:0.42596
G1 X94.055 Y86.242 E.02508
G1 X93.284 Y86.468 E.0256
;WIDTH:0.453938
G1 X92.784 Y86.51 E.01714
G1 X91.901 Y86.682 E.03075
;WIDTH:0.419999
G1 X88.796 Y87.596 E.10146
G1 X82.902 Y88.713 E.18809
G1 X79.834 Y88.963 E.09652
G1 X79.108 Y88.96 E.02277
;WIDTH:0.445191
G1 X78.463 Y89.001 E.02163
G1 X77.861 Y89.081 E.02032
;WIDTH:0.420559
G1 X77.297 Y89.08 E.01769
;WIDTH:0.395418
G1 X76.7 Y89.019 E.01758
;WIDTH:0.421232
G1 X76.14 Y88.862 E.01832
;WIDTH:0.447388
G1 X75.006 Y88.446 E.04063
;WIDTH:0.419999
G1 X74.084 Y88.14 E.03045
G1 X73.453 Y87.828 E.02204
G1 X73.009 Y87.52 E.01696
G1 X72.608 Y87.126 E.01763
G1 X72.394 Y86.834 E.01134
G1 X72.267 Y86.446 E.01282
G1 X72.277 Y86.171 E.00863
G1 X72.429 Y85.806 E.01239
G1 X72.72 Y85.459 E.0142
G1 X73.277 Y85.089 E.02098
G1 X73.915 Y84.82 E.02171
G1 X75.552 Y84.435 E.05273
;WIDTH:0.430475
G1 X76.814 Y84.179 E.04149
;WIDTH:0.421269
G1 X77.395 Y84.163 E.01829
;WIDTH:0.41821
G1 X77.401 Y84.163 E.00018
M204 P1000
G1 E-2.24 F4200
;WIPE_START
G1 F7200
G1 X77.968 Y84.221 E-.31591
G1 X78.778 Y84.361 E-.45522
G1 X79.03 Y84.392 E-.14087
;WIPE_END
G1 E-.048 F4200
G1 Z.4 F720
G1 X74.767 Y85.602 F9000
G1 Z.2 F720
G1 E3.2 F2400
M204 P800
;TYPE:Solid infill
;WIDTH:0.434294
G1 F1200
G1 X74.517 Y85.351 E.01153
G1 X74.079 Y85.467 E.01474
G1 X74.482 Y85.87 E.01856
G1 X74.408 Y86.349 E.01579
G1 X73.69 Y85.631 E.03306
G1 X73.591 Y85.673 E.00347
G1 X73.343 Y85.838 E.00971
G1 X74.397 Y86.892 E.04851
G1 X74.472 Y87.411 E.01708
G1 X74.551 Y87.599 E.00662
G1 X73.035 Y86.083 E.06975
G1 X72.963 Y86.196 E.00435
G1 X72.933 Y86.288 E.00315
G1 X72.929 Y86.383 E.0031
G1 X72.95 Y86.473 E.00299
G1 X73.007 Y86.584 E.00406
G1 X73.241 Y86.843 E.01139
G1 X73.901 Y87.503 E.03033
M204 P1000
G1 E-2.24 F4200
;WIPE_START
G1 F7200
G1 X73.241 Y86.843 E-.51657
G1 X73.007 Y86.584 E-.19404
G1 X72.95 Y86.473 E-.06909
G1 X72.929 Y86.383 E-.05093
G1 X72.933 Y86.288 E-.05274
G1 X72.949 Y86.239 E-.02863
;WIPE_END
G1 E-.048 F4200
G1 Z.4 F720
G1 X89.602 Y86.104 F9000
G1 Z.2 F720
G1 E3.2 F2400
M204 P800
;WIDTH:0.421381
G1 F1200
G1 X90.039 Y86.542 E.01948
G1 X89.626 Y86.664 E.01356
G1 X89.161 Y86.199 E.02069
G1 X88.515 Y86.088 E.02063
G1 X89.212 Y86.785 E.03105
G1 X88.799 Y86.907 E.01356
G1 X87.889 Y85.998 E.04047
G1 X87.264 Y85.908 E.01988
G1 X88.363 Y87.006 E.04889
G1 X87.913 Y87.092 E.01441
G1 X86.639 Y85.818 E.05669
G1 X86.014 Y85.728 E.01988
G1 X87.463 Y87.177 E.06449
G1 X87.013 Y87.262 E.01441
G1 X85.388 Y85.638 E.07229
G1 X84.763 Y85.548 E.01988
G1 X86.563 Y87.347 E.08009
G1 X86.113 Y87.433 E.01441
G1 X84.138 Y85.458 E.0879
G1 X83.513 Y85.368 E.01988
G1 X85.663 Y87.518 E.0957
G1 X85.213 Y87.603 E.01441
G1 X82.887 Y85.278 E.1035
G1 X82.307 Y85.233 E.01831
G1 X84.763 Y87.688 E.10928
G1 X84.313 Y87.774 E.01441
G1 X81.745 Y85.205 E.1143
G1 X81.182 Y85.178 E.01773
G1 X83.863 Y87.859 E.11932
G1 X83.413 Y87.944 E.01441
G1 X80.619 Y85.15 E.12434
G1 X80.056 Y85.123 E.01773
G1 X82.963 Y88.029 E.12936
G1 X82.484 Y88.085 E.01518
G1 X80.191 Y85.793 E.10203
G1 X80.244 Y85.984 E.00625
G1 X80.298 Y86.435 E.01427
G1 X81.99 Y88.127 E.07531
G1 X81.496 Y88.168 E.01559
G1 X80.288 Y86.96 E.05378
G1 X80.216 Y87.423 E.01474
G1 X81.003 Y88.21 E.03503
G1 X80.509 Y88.251 E.01559
G1 X80.067 Y87.81 E.01965
G1 X79.965 Y88.052 E.00828
G1 X79.893 Y88.171 E.00436
G1 X80.172 Y88.45 E.01241
M204 P1000
; stop printing object FirstWindTurbineBlade-DowelHole.stl id:0 copy 0
M106 S84.15
;LAYER_CHANGE
;Z:0.35
;HEIGHT:0.15
;BEFORE_LAYER_CHANGE
G92 E0.0
;0.35


G1 E-2.24 F4200
;WIPE_START
G1 F7200
G1 X79.893 Y88.171 E-.21857
G1 X79.965 Y88.052 E-.07677
G1 X80.067 Y87.81 E-.14589
G1 X80.509 Y88.251 E-.34601
G1 X80.733 Y88.232 E-.12477
;WIPE_END
G1 E-.048 F4200
G1 Z.4 F720
;AFTER_LAYER_CHANGE
;0.35
G1 X81.051 Y92.023 F9000
G1 Z.35 F720
G1 E3.2 F2400
;TYPE:Skirt/Brim
;WIDTH:0.42
G1 F1434
G1 X79.781 Y92.13 E.03083
G1 X76.667 Y92 E.07539
G1 X74.504 Y91.602 E.05318
G1 X72.959 Y91.098 E.0393
G1 X71.928 Y90.601 E.02768
G1 X71.052 Y90.014 E.0255
G1 X70.226 Y89.245 E.02729
G1 X69.662 Y88.442 E.02374
G1 X69.25 Y87.467 E.02559
G1 X69.102 Y86.551 E.02245
G1 X69.198 Y85.434 E.02711
G1 X69.434 Y84.709 E.01844
G1 X69.863 Y83.943 E.02124
G1 X70.472 Y83.232 E.02263
G1 X71.556 Y82.434 E.03255
G1 X73.155 Y81.748 E.04208
G1 X74.793 Y81.362 E.04071
G1 X76.788 Y81.166 E.04848
G1 X83.215 Y81.461 E.15561
G1 X89.236 Y82.329 E.14713
G1 X95.258 Y83.461 E.14819
G1 X96.254 Y83.897 E.02629
G1 X97.11 Y84.856 E.03108
G1 X97.431 Y85.883 E.02604
G1 X97.242 Y87.342 E.03557
G1 X95.741 Y88.823 E.05099
G1 X95.449 Y88.93 E.00752
G1 X89.619 Y90.658 E.14706
G1 X83.597 Y91.809 E.14829
G1 X81.111 Y92.018 E.06033
G1 X81.08 Y91.644 F9000
G1 F1434
G1 X79.785 Y91.753 E.03142
G1 X76.696 Y91.624 E.07479
G1 X74.676 Y91.259 E.04964
G1 X73.097 Y90.747 E.04014
G1 X72.121 Y90.277 E.0262
G1 X71.268 Y89.705 E.02484
G1 X70.516 Y89.003 E.02488
G1 X69.998 Y88.271 E.0217
G1 X69.613 Y87.364 E.02382
G1 X69.479 Y86.542 E.02015
G1 X69.564 Y85.525 E.02467
G1 X69.974 Y84.473 E.0273
G1 X70.475 Y83.772 E.02084
G1 X71.134 Y83.167 E.02163
G1 X72.104 Y82.56 E.02767
G1 X73.129 Y82.145 E.02674
G1 X74.688 Y81.768 E.0388
G1 X76.787 Y81.543 E.05106
G1 X83.161 Y81.834 E.15432
G1 X89.175 Y82.701 E.14693
G1 X95.178 Y83.829 E.14774
G1 X96.039 Y84.207 E.02273
G1 X96.778 Y85.036 E.02687
G1 X97.058 Y85.936 E.02281
G1 X96.854 Y87.285 E.033
G1 X95.599 Y88.473 E.04179
G1 X95.226 Y88.605 E.00958
G1 X89.532 Y90.291 E.14362
G1 X83.527 Y91.439 E.14786
G1 X81.14 Y91.639 E.05794
; printing object FirstWindTurbineBlade-DowelHole.stl id:0 copy 0
G1 E-2.24 F4200
;WIPE_START
G1 F7200
G1 X79.785 Y91.753 E-.75324
G1 X79.499 Y91.741 E-.15876
;WIPE_END
G1 E-.048 F4200
G1 Z.55 F720
G1 X75.765 Y84.676 F9000
G1 Z.35 F720
G1 E3.2 F2400
M204 P800
;TYPE:Perimeter
;WIDTH:0.449999
G1 F1434
G1 X75.49 Y84.914 E.00948
G1 X75.181 Y85.321 E.0133
G1 X74.913 Y85.915 E.017
G1 X74.838 Y86.318 E.01066
G1 X74.813 Y86.795 E.01247
G1 X74.913 Y87.389 E.01569
G1 X75.105 Y87.853 E.01307
G1 X75.448 Y88.336 E.01544
G1 X74.193 Y87.931 E.03435
G1 X73.565 Y87.623 E.01823
G1 X73.104 Y87.303 E.01463
G1 X72.744 Y86.952 E.01309
G1 X72.56 Y86.606 E.01021
G1 X72.5 Y86.304 E.00804
G1 X72.513 Y86.229 E.00198
G1 X72.645 Y85.923 E.00868
G1 X72.871 Y85.64 E.00945
G1 X73.377 Y85.303 E.01583
G1 X74.021 Y85.036 E.01816
G1 X75.362 Y84.717 E.0359
G1 X75.706 Y84.682 E.00901
M204 P1000
G1 E-2.24 F4200
;WIPE_START
G1 F7200
G1 X75.49 Y84.914 E-.17557
G1 X75.181 Y85.321 E-.2829
G1 X74.913 Y85.915 E-.36146
G1 X74.883 Y86.079 E-.09206
;WIPE_END
G1 E-.048 F4200
G1 Z.55 F720
G1 X79.544 Y85.389 F9000
G1 Z.35 F720
G1 E3.2 F2400
M204 P800
G1 F1434
G1 X79.509 Y85.31 E.00225
G1 X79.203 Y84.912 E.01307
G1 X78.914 Y84.664 E.00994
G1 X82.737 Y84.834 E.09971
G1 X88.697 Y85.696 E.1569
G1 X92.224 Y86.339 E.09341
G1 X88.725 Y87.375 E.09507
G1 X82.941 Y88.473 E.15339
G1 X79.878 Y88.732 E.08011
G1 X78.85 Y88.69 E.0268
G1 X79.203 Y88.392 E.01203
G1 X79.591 Y87.853 E.0173
G1 X79.825 Y87.231 E.0173
G1 X79.89 Y86.571 E.0173
G1 X79.782 Y85.915 E.0173
G1 X79.569 Y85.444 E.01349
M204 P1000
G1 X79.106 Y85.474 F9000
M204 P800
;TYPE:External perimeter
G1 F1434
G1 X79.177 Y85.565 E.00299
G1 X79.396 Y86.075 E.01448
G1 X79.476 Y86.625 E.01448
G1 X79.411 Y87.177 E.01448
G1 X79.205 Y87.693 E.01448
G1 X78.872 Y88.138 E.01448
G1 X78.435 Y88.482 E.01448
G1 X77.92 Y88.69 E.01448
;WIDTH:0.42695
G1 X77.645 Y88.717 E.00681
;WIDTH:0.401322
G1 X77.37 Y88.744 E.00636
;WIDTH:0.388868
G1 X76.827 Y88.685 E.01215
;WIDTH:0.419434
G1 X76.567 Y88.597 E.00663
;WIDTH:0.449999
G1 X76.307 Y88.509 E.00715
G1 X75.862 Y88.177 E.01448
G1 X75.518 Y87.74 E.01448
G1 X75.299 Y87.23 E.01448
G1 X75.219 Y86.68 E.01448
G1 X75.285 Y86.128 E.01448
G1 X75.487 Y85.62 E.01424
G1 X75.823 Y85.167 E.01468
G1 X76.26 Y84.823 E.0145
;WIDTH:0.460995
G1 X76.768 Y84.599 E.01486
G1 X77.314 Y84.541 E.01466
;WIDTH:0.436552
G1 X77.87 Y84.596 E.01411
;WIDTH:0.449999
G1 X78.388 Y84.796 E.01446
G1 X78.833 Y85.128 E.01448
G1 X79.069 Y85.427 E.00992
M204 P1000
G1 X79.219 Y85.452 F9000
G1 E-2.24 F4200
;WIPE_START
G1 F7200
G1 X79.177 Y85.565 E-.09686
G1 X79.396 Y86.075 E-.30792
G1 X79.476 Y86.625 E-.30792
G1 X79.434 Y86.982 E-.19929
;WIPE_END
G1 E-.048 F4200
G1 Z.55 F720
G1 X77.481 Y84.166 F9000
G1 Z.35 F720
G1 E3.2 F2400
M204 P800
;WIDTH:0.440236
G1 F1434
G1 X78.014 Y84.2 E.01357
;WIDTH:0.449999
G1 X82.776 Y84.418 E.12423
G1 X88.764 Y85.284 E.15762
G1 X91.706 Y85.81 E.0779
G1 X93.965 Y86.258 E.05999
G1 X88.824 Y87.782 E.1397
G1 X82.998 Y88.887 E.1545
G1 X79.887 Y89.15 E.08135
G1 X77.888 Y89.085 E.05213
;WIDTH:0.418834
M73 P1 R73
G1 X77.296 Y89.083 E.01426
;WIDTH:0.392875
G1 X76.681 Y89.019 E.01392
;WIDTH:0.421437
G1 X76.436 Y88.961 E.0061
;WIDTH:0.449999
G1 X75.416 Y88.764 E.02706
G1 X74.712 Y88.537 E.01928
G1 X73.832 Y88.22 E.02437
G1 X73.225 Y87.895 E.01795
G1 X72.668 Y87.482 E.01808
G1 X72.31 Y87.074 E.01413
G1 X72.107 Y86.613 E.01314
G1 X72.079 Y86.285 E.00858
G1 X72.13 Y85.999 E.00757
G1 X72.364 Y85.565 E.01283
G1 X72.602 Y85.317 E.00896
G1 X73.18 Y84.933 E.01809
G1 X73.892 Y84.637 E.02009
G1 X75.301 Y84.302 E.03773
G1 X76.162 Y84.216 E.02255
;WIDTH:0.459107
G1 X76.83 Y84.157 E.01786
G1 X77.396 Y84.16 E.01506
;WIDTH:0.440236
G1 X77.422 Y84.162 E.00066
M204 P1000
G1 E-2.24 F4200
;WIPE_START
G1 F7200
G1 X78.014 Y84.2 E-.32878
G1 X79.065 Y84.248 E-.58322
;WIPE_END
G1 E-.048 F4200
G1 Z.55 F720
G1 X74.759 Y87.296 F9000
G1 Z.35 F720
G1 E3.2 F2400
;TYPE:Solid infill
;WIDTH:0.468833
G1 F1434
G1 X74.39 Y87.665 E.01424
G1 X73.967 Y87.471 E.01268
G1 X74.516 Y86.922 E.02114
G1 X74.494 Y86.769 E.00421
G1 X74.494 Y86.536 E.00633
G1 X74.525 Y86.295 E.00663
G1 X73.573 Y87.247 E.03667
G1 X73.212 Y86.991 E.01206
G1 X74.777 Y85.426 E.06026
G1 X74.924 Y85.143 E.00869
G1 X74.291 Y85.294 E.01771
G1 X72.926 Y86.659 E.05258
G1 X72.825 Y86.429 E.00684
G1 X72.829 Y86.242 E.00509
G1 X72.95 Y86.017 E.00697
G1 X73.636 Y85.331 E.02642
G1 E-2.24 F4200
;WIPE_START
G1 F7200
